X:49
%%etbk:tnset id:17,pos:1,rep:3x,ant:
%%etbk:wsite http://www.thesession.org/tunes/display/558
%%etbk:pldat 2016-09-06T17:21,2016-03-17T17:41,2016-02-08T19:28,2015-11-25T16:20,2015-10-12T18:35,2015-10-07T17:34,2015-08-18T17:44,2015-01-26T19:25,2015-01-25T16:34,2014-12-29T17:33,2014-11-10T18:43,2014-09-11T19:31,2014-06-15T13:54,2014-04-28T18:28,2014-04-06T15:15,2014-03-22T16:41,2014-03-21T16:35,2014-02-26T18:43,2014-02-12T19:29,2014-02-05T17:33,2014-02-04T18:20,2013-11-23T15:59,2013-11-09T14:59,2013-11-04T18:18,2013-05-21T17:26,2013-05-07T19:16
T: Cottage In The Glen, The
Z: Piano Box Version by Martin Fleischmann
H: Created 2013-02-19 /  Last Modified 2013-11-04
M: 4/4
L: 1/8
R: reel
K: Edor
!1!B,2!2!EE !1!D!2!E!3!F!4!A | !2!B2 !4!ee !3!d!2!B!1!A!3!F | !1!DEFD !2!EE!1!D!2!B, | !1!A,!2!B,!3!D!5!F !4!E!3!D!2!B,!1!A, | 
!2!B,!4!E!2!EE  !1!DEF!4!A | !2!B2 !4!ee !3!dB!1!A!3!F | !1!DEF!4!A !4!ABA!3!F | !2!EGFD !2!E4 :|
|: !2!B2!4!ee !5!f!4!e!3!d!2!B | !4!e2fe !3!d!2!B!1!A!2!F | !1!A3 !2!B !3!d2 !5!fd | !4!edef !3!dd!2!B!1!A | 
!2!B2!4!ee !5!fed!2!B | !4!e2fe !3!d!2!B!1!A!3!F | !1!DEF!4!A ABA!3!F | !2!EGFD !2!E4 :|


